!!!COA:	Josquin des Prez
!!!CDT:	~1450-1521/08/27
!!!OPR:	Missa Hercules dux Ferrarie
!!!ONM:	4
!!!OTL:	Sanctus
!!!AGN:	Mass; Sanctus
!!!SCT:	NJE 11.1
!!!SCA:	New Josquin Edition 11.1
!!!voices:	4
**kern	**text	**kern	**text	**kern	**text	**kern	**text
*staff4	*staff4	*staff3	*staff3	*staff2	*staff2	*staff1	*staff1
*Ivox	*	*Ivox	*	*Ivox	*	*Ivox	*
*I"Bassus	*	*I"Tenor	*	*I"Altus	*	*I"Superius	*
*I'B	*	*I'T	*	*I'A	*	*I'S	*
*>[A,B,C,D,E,F]	*>[A,B,C,D,E,F]	*>[A,B,C,D,E,F]	*>[A,B,C,D,E,F]	*>[A,B,C,D,E,F]	*>[A,B,C,D,E,F]	*>[A,B,C,D,E,F]	*>[A,B,C,D,E,F]
*>A	*>A	*>A	*>A	*>A	*>A	*>A	*>A
*clefF4	*	*clefGv2	*	*clefGv2	*	*clefG2	*
*k[]	*	*k[]	*	*k[]	*	*k[]	*
*M3/1	*	*M3/1	*	*M3/1	*	*M3/1	*
*met(O)	*	*met(O)	*	*met(O)	*	*met(O)	*
!!section: Sanctus
!!!OMD: Sanctus
=1-	=1-	=1-	=1-	=1-	=1-	=1-	=1-
0.r	.	0.r	.	0.d	Phi-	2r	.
.	.	.	.	.	.	2.d/	Sanc-
.	.	.	.	.	.	4e/	.
.	.	.	.	.	.	4f/	.
.	.	.	.	.	.	4g/	.
.	.	.	.	.	.	2a/	.
.	.	.	.	.	.	2d/	.
=2	=2	=2	=2	=2	=2	=2	=2
2r	.	0.r	.	0.c	-lip-	0.e	-tus,
2.AA/	Sanc-	.	.	.	.	.	.
4BB/	.	.	.	.	.	.	.
4C/	.	.	.	.	.	.	.
4D\	.	.	.	.	.	.	.
2E\	.	.	.	.	.	.	.
2AA/	.	.	.	.	.	.	.
=3	=3	=3	=3	=3	=3	=3	=3
0BB-	-tus,	0.r	.	0.d	-pus	2r	.
.	.	.	.	.	.	2.d/	sanc-
.	.	.	.	.	.	4e/	.
.	.	.	.	.	.	4f/	.
.	.	.	.	.	.	4g/	.
1r	.	.	.	.	.	2a/	.
.	.	.	.	.	.	2d/	.
=4	=4	=4	=4	=4	=4	=4	=4
2r	.	0.r	.	0.c	rex	0.e	-tus,
2.AA/	sanc-	.	.	.	.	.	.
4BB/	.	.	.	.	.	.	.
4C/	.	.	.	.	.	.	.
4D\	.	.	.	.	.	.	.
2E\	.	.	.	.	.	.	.
2AA/	.	.	.	.	.	.	.
=5	=5	=5	=5	=5	=5	=5	=5
2BB-i/	-tus,	0.r	.	0.d	Ca-	2d/	.
2.GG/	sanc-	.	.	.	.	2.dd\	sanc-
4AA/	.	.	.	.	.	4cc\	.
4BB-i/	.	.	.	.	.	2b-i\	.
4C/	.	.	.	.	.	.	.
2D\	.	.	.	.	.	4a/	.
.	.	.	.	.	.	4f/	.
2GG/	.	.	.	.	.	2b-\	.
=6	=6	=6	=6	=6	=6	=6	=6
0.D	-tus,	0.r	.	0.f	-sti-	2a/	-tus,
.	.	.	.	.	.	2.d/	sanc-
.	.	.	.	.	.	4e/	.
.	.	.	.	.	.	4f/	.
.	.	.	.	.	.	4g/	.
.	.	.	.	.	.	2a/	.
.	.	.	.	.	.	2d/	.
=7	=7	=7	=7	=7	=7	=7	=7
2r	.	0.r	.	0.e	-li-	2e/	-tus,
2.AA/	sanc-	.	.	.	.	2.c/	sanc-
4BB/	.	.	.	.	.	4d/	.
4C/	.	.	.	.	.	4e/	.
4D\	.	.	.	.	.	4f/	.
2E\	.	.	.	.	.	2g/	.
2AA/	.	.	.	.	.	2c/	.
=8	=8	=8	=8	=8	=8	=8	=8
2BB-i/	-tus,	0.r	.	0.d	-e,	2d/	-tus,
2.GG/	sanc-	.	.	.	.	2.dd\	sanc-
4AA/	.	.	.	.	.	4cc\	.
4BB-i/	.	.	.	.	.	2b-i\	.
4C/	.	.	.	.	.	.	.
2D\	.	.	.	.	.	4a/	.
.	.	.	.	.	.	4f/	.
2GG/	-tus,	.	.	.	.	2b-\	.
=9	=9	=9	=9	=9	=9	=9	=9
2r	.	0.D	Phi-	1r	.	2a/	.
2.D\	sanc-	.	.	.	.	1f	.
.	.	.	.	0d	Sanc-	.	.
4E\	.	.	.	.	.	.	.
4F\	.	.	.	.	.	2d/	.
4G\	.	.	.	.	.	.	.
2A\	.	.	.	.	.	1f	.
2D\	.	.	.	.	.	.	.
=10	=10	=10	=10	=10	=10	=10	=10
2E\	-tus	0.C	-lip-	2G/	-tus	0e	-tus
2.AA/	do-	.	.	2.c\	do-	.	.
4BB/	.	.	.	4B\	.	.	.
4C/	.	.	.	2A/	.	.	.
4D\	.	.	.	.	.	.	.
2E\	-mi-	.	.	2G/	.	2r	.
2AA/	-nus	.	.	2A/	.	2e/	do-
=11	=11	=11	=11	=11	=11	=11	=11
2r	.	0.D	-pus	2F/	-mi-	1.f	-mi-
2.D\	de-	.	.	2D/	-nus	.	.
.	.	.	.	0d	de-	.	.
4E\	.	.	.	.	.	.	.
4F\	.	.	.	.	.	2d/	-nus
4G\	.	.	.	.	.	.	.
2A\	.	.	.	.	.	1f	de-
2D\	.	.	.	.	.	.	.
=12	=12	=12	=12	=12	=12	=12	=12
2E\	-us	0.C	rex	2G/	-us	0e	-us,
2.AA/	sa-	.	.	2.c\	sa-	.	.
4BB/	.	.	.	4B\	.	.	.
4C/	.	.	.	2A/	.	.	.
4D\	.	.	.	.	.	.	.
2E\	.	.	.	2G/	.	2r	.
2AA/	-ba-	.	.	2A/	-ba-	2e/	de-
=13	=13	=13	=13	=13	=13	=13	=13
2BB-/	-oth,	0.D	Ca-	2F/	-oth,	2d/	-us
2.GG/	sa-	.	.	2.B-\	sa-	2.dd\	sa-
4AA/	.	.	.	4A/	.	4cc\	.
4BB-i/	.	.	.	2G/	.	2b-\	.
4C/	.	.	.	.	.	.	.
2D\	-ba-	.	.	2F/	.	4a/	.
.	.	.	.	.	.	4f/	.
2GG/	-oth,	.	.	2G/	-ba-	2b-i\	.
=14	=14	=14	=14	=14	=14	=14	=14
2r	.	0.F	-sti-	2D/	-oth,	1a	.
2.D\	sa-	.	.	2.f\	sa-	.	.
.	.	.	.	.	.	2d/	.
4E\	.	.	.	4e\	.	.	.
4F\	.	.	.	2d\	.	1a	.
4G\	.	.	.	.	.	.	.
2A\	.	.	.	2c\	.	.	.
2D\	-ba-	.	.	2d\	-ba-	2f/	-ba-
=15	=15	=15	=15	=15	=15	=15	=15
2E\	-oth,	0.E	-li-	2G/	-oth,	2g/	-oth,
2.AA/	de-	.	.	2A/	de-	2.c/	de-
.	.	.	.	2.c\	.	.	.
4BB/	.	.	.	.	.	4d/	.
4C/	.	.	.	.	.	4e/	.
4D\	.	.	.	4B\	.	4f/	.
2E\	.	.	.	2G/	.	2g/	.
2AA/	.	.	.	2A/	.	2c/	.
=16	=16	=16	=16	=16	=16	=16	=16
2BB-/	-us	[0.Dl	-e.	2F/	-us	2d/	-us
2.GG/	sa-	.	.	2.B-\	sa-	2.dd\	sa-
4AA/	.	.	.	4A/	.	4cc\	.
4BB-i/	.	.	.	2G/	.	2b-\	.
4C/	.	.	.	.	.	.	.
2D\	.	.	.	4F/	.	4a/	.
.	.	.	.	4D/	.	4f/	.
2GG/	-ba-	.	.	2G/	-ba-	2b-i\	-ba-
=17	=17	=17	=17	=17	=17	=17	=17
0.Dl	-oth.	0.D]	.	0.Fl	-oth.	0.al	-oth.
!!LO:LB:i:g=z
=18||	=18||	=18||	=18||	=18||	=18||	=18||	=18||
*>B	*>B	*>B	*>B	*>B	*>B	*>B	*>B
*clefF4	*	*clefGv2	*	*clefGv2	*	*clefG2	*
*k[]	*	*k[]	*	*k[]	*	*k[]	*
*M2/1	*	*M2/1	*	*M2/1	*	*M2/1	*
*met(C|)	*	*met(C|)	*	*met(C|)	*	*met(C|)	*
!!section: Pleni sunt celi
!!!OMD: Pleni sunt celi
!	!	!	!	!LO:TX:Z=13:t=Canon&colon; Supra bassum [B-->A canon&colon; upper fifth, one semibreve]	!	!	!
1D	Ple-	0r	.	1r	.	0r	.
1F	-ni	.	.	1A	Ple-	.	.
=19	=19	=19	=19	=19	=19	=19	=19
1E	sunt	0r	.	1c	-ni	0r	.
[1G	ce-	.	.	1B	sunt	.	.
=20	=20	=20	=20	=20	=20	=20	=20
2G\]	.	0r	.	1.d	ce-	0r	.
4F\	.	.	.	.	.	.	.
4E\	.	.	.	.	.	.	.
2D\	.	.	.	.	.	.	.
2E\	.	.	.	4c\	.	.	.
.	.	.	.	4B\	.	.	.
=21	=21	=21	=21	=21	=21	=21	=21
2F\	-li	0r	.	2A/	.	0r	.
2G\	et	.	.	2B\	.	.	.
2A\	ter-	.	.	2c\	-li	.	.
2D\	.	.	.	2d\	et	.	.
=22	=22	=22	=22	=22	=22	=22	=22
1A	-ra,	0r	.	2e\	ter-	0r	.
.	.	.	.	2A/	.	.	.
2r	.	.	.	1e	-ra,	.	.
2AA/	ple-	.	.	.	.	.	.
=23	=23	=23	=23	=23	=23	=23	=23
1C	-ni	0r	.	2r	.	0r	.
.	.	.	.	2E/	ple-	.	.
1BB	sunt	.	.	1G	-ni	.	.
=24	=24	=24	=24	=24	=24	=24	=24
1.D	ce-	0r	.	1F	sunt	0r	.
.	.	.	.	[1A	ce-	.	.
4C/	.	.	.	.	.	.	.
4BB/	.	.	.	.	.	.	.
=25	=25	=25	=25	=25	=25	=25	=25
2AA/	.	0r	.	2A/]	.	0r	.
2BB/	.	.	.	4G/	.	.	.
.	.	.	.	4F/	.	.	.
2C/	-li	.	.	2E/	.	.	.
2D\	et	.	.	2F/	.	.	.
=26	=26	=26	=26	=26	=26	=26	=26
2E\	ter-	0r	.	2G/	-li	0r	.
2AA/	.	.	.	2A/	et	.	.
1E	-ra,	.	.	2B\	ter-	.	.
.	.	.	.	2E/	.	.	.
=27	=27	=27	=27	=27	=27	=27	=27
2r	.	0r	.	1B	-ra,	0r	.
2E\	ple-	.	.	.	.	.	.
1G	-ni	.	.	2r	.	.	.
.	.	.	.	2B\	ple-	.	.
=28	=28	=28	=28	=28	=28	=28	=28
1F	sunt	0r	.	1d	-ni	0r	.
[1A	ce-	.	.	1c	sunt	.	.
=29	=29	=29	=29	=29	=29	=29	=29
2A\]	.	0r	.	1.e	ce-	0r	.
4G\	.	.	.	.	.	.	.
4F\	.	.	.	.	.	.	.
2E\	.	.	.	.	.	.	.
2F\	.	.	.	4d\	.	.	.
.	.	.	.	4c\	.	.	.
=30	=30	=30	=30	=30	=30	=30	=30
2G\	-li	0r	.	2B\	.	0r	.
2A\	et	.	.	2c\	.	.	.
2D\	ter-	.	.	2d\	-li	.	.
2A\	-ra,	.	.	2e\	et	.	.
=31	=31	=31	=31	=31	=31	=31	=31
2r	.	0r	.	2A/	ter-	0r	.
1A	ce-	.	.	2e\	-ra,	.	.
.	.	.	.	2r	.	.	.
2G\	.	.	.	[2e\	ce-	.	.
=32	=32	=32	=32	=32	=32	=32	=32
2A\	.	0r	.	2e\]	.	0r	.
2F\	.	.	.	2d\	.	.	.
2E\	-li	.	.	2e\	.	.	.
2A\	et	.	.	2c\	.	.	.
=33	=33	=33	=33	=33	=33	=33	=33
2G\	ter-	0r	.	2B\	-li	0r	.
2E\	-ra,	.	.	2e\	et	.	.
2r	.	.	.	2d\	ter-	.	.
[2G\	ce-	.	.	2B\	-ra,	.	.
=34	=34	=34	=34	=34	=34	=34	=34
2G\]	.	0r	.	2r	.	0r	.
2F\	.	.	.	1d	ce-	.	.
2G\	.	.	.	.	.	.	.
2E\	.	.	.	2c\	.	.	.
=35	=35	=35	=35	=35	=35	=35	=35
2D\	-li	0r	.	2d\	.	0r	.
2G\	et	.	.	2B\	.	.	.
2F\	ter-	.	.	2A/	-li	.	.
2D\	-ra,	.	.	2d\	et	.	.
=36	=36	=36	=36	=36	=36	=36	=36
2r	.	0r	.	2c\	ter-	0r	.
2D\	ce-	.	.	2A/	-ra,	.	.
2E\	.	.	.	2r	.	.	.
2F\	.	.	.	2A/	ce-	.	.
=37	=37	=37	=37	=37	=37	=37	=37
2G\	.	0r	.	2B\	.	0r	.
2E\	.	.	.	2c\	.	.	.
2F\	-li	.	.	2d\	.	.	.
2G\	et	.	.	2B\	.	.	.
=38	=38	=38	=38	=38	=38	=38	=38
2A\	ter-	0r	.	2c\	-li	0r	.
2D\	-ra,	.	.	2d\	et	.	.
2r	.	.	.	2e\	ter-	.	.
[2A\	glo-	.	.	2A/	-ra,	.	.
=39	=39	=39	=39	=39	=39	=39	=39
2A\]	.	0r	.	2r	.	0r	.
2G\	.	.	.	1e	glo-	.	.
2A\	-ri-	.	.	.	.	.	.
2B-i\	-a	.	.	2d\	.	.	.
=40	=40	=40	=40	=40	=40	=40	=40
2G\	tu-	0r	.	2e\	-ri-	0r	.
2A\	-a,	.	.	2f\	-a	.	.
2r	.	.	.	2d\	tu-	.	.
[2A\	glo-	.	.	2e\	-a,	.	.
=41	=41	=41	=41	=41	=41	=41	=41
2A\]	.	0r	.	2r	.	0r	.
2G\	.	.	.	1e	glo-	.	.
2A\	-ri-	.	.	.	.	.	.
2B-i\	-a	.	.	2d\	.	.	.
=42	=42	=42	=42	=42	=42	=42	=42
2G\	tu-	0r	.	2e\	-ri-	0r	.
2A\	-a,	.	.	2f\	-a	.	.
2r	.	.	.	2d\	tu-	.	.
[2AA/	glo-	.	.	2e\	-a,	.	.
=43	=43	=43	=43	=43	=43	=43	=43
4AA/]	.	0r	.	2r	.	0r	.
4GG/	.	.	.	.	.	.	.
4AA/	.	.	.	2.E/	glo-	.	.
4BB/	.	.	.	.	.	.	.
4C/	.	.	.	.	.	.	.
4BB/	.	.	.	4D/	.	.	.
4C/	.	.	.	4E/	.	.	.
4AA/	.	.	.	4F/	.	.	.
=44	=44	=44	=44	=44	=44	=44	=44
4BB/	.	0r	.	4G/	.	0r	.
4AA/	.	.	.	4F/	.	.	.
4BB/	.	.	.	4G/	.	.	.
4C/	.	.	.	4E/	.	.	.
2D\	.	.	.	4F/	.	.	.
.	.	.	.	4E/	.	.	.
2BB/	-ri-	.	.	4F/	.	.	.
.	.	.	.	4G/	.	.	.
=45	=45	=45	=45	=45	=45	=45	=45
2AA/	-a	0r	.	2A/	.	0r	.
2A\	tu-	.	.	2F/	-ri-	.	.
2G\	.	.	.	2E/	-a	.	.
2A\	.	.	.	2e\	tu-	.	.
=46	=46	=46	=46	=46	=46	=46	=46
2D\	.	0r	.	2d\	.	0r	.
2A\	-a,	.	.	2e\	.	.	.
2r	.	.	.	2A/	.	.	.
[2AA/	glo-	.	.	2e\	-a,	.	.
=47	=47	=47	=47	=47	=47	=47	=47
4AA/]	.	0r	.	2r	.	0r	.
4GG/	.	.	.	.	.	.	.
4AA/	.	.	.	2.E/	glo-	.	.
4BB/	.	.	.	.	.	.	.
4C/	.	.	.	.	.	.	.
4BB/	.	.	.	4D/	.	.	.
4C/	.	.	.	4E/	.	.	.
4AA/	.	.	.	4F/	.	.	.
=48	=48	=48	=48	=48	=48	=48	=48
4BB/	.	0r	.	4G/	.	0r	.
4AA/	.	.	.	4F/	.	.	.
4BB/	.	.	.	4G/	.	.	.
4C/	.	.	.	4E/	.	.	.
2D\	.	.	.	4F/	.	.	.
.	.	.	.	4E/	.	.	.
2BB/	-ri-	.	.	4F/	.	.	.
.	.	.	.	4G/	.	.	.
=49	=49	=49	=49	=49	=49	=49	=49
2AA/	-a,	0r	.	2A/	.	0r	.
2.D\	glo-	.	.	2F/	-ri-	.	.
.	.	.	.	2E/	-a,	.	.
4C/	.	.	.	.	.	.	.
4D\	.	.	.	[2A/	glo-	.	.
4E\	.	.	.	.	.	.	.
=50	=50	=50	=50	=50	=50	=50	=50
4F\	.	0r	.	4A/]	.	0r	.
4E\	.	.	.	4G/	.	.	.
4F\	.	.	.	4A/	.	.	.
4D\	.	.	.	4B\	.	.	.
4E\	.	.	.	4c\	.	.	.
4D\	.	.	.	4B\	.	.	.
4E\	.	.	.	4c\	.	.	.
4F\	.	.	.	4A/	.	.	.
=51	=51	=51	=51	=51	=51	=51	=51
2G\	.	0r	.	4B\	.	0r	.
.	.	.	.	4A/	.	.	.
2E\	-ri-	.	.	4B\	.	.	.
.	.	.	.	4c\	.	.	.
1D	-a,	.	.	2d\	.	.	.
.	.	.	.	2B\	-ri-	.	.
=52	=52	=52	=52	=52	=52	=52	=52
2r	.	0r	.	1A	-a,	0r	.
2.D\	glo-	.	.	.	.	.	.
.	.	.	.	2r	.	.	.
4C/	.	.	.	.	.	.	.
4D\	.	.	.	[2A/	glo-	.	.
4E\	.	.	.	.	.	.	.
=53	=53	=53	=53	=53	=53	=53	=53
4F\	.	0r	.	4A/]	.	0r	.
4E\	.	.	.	4G/	.	.	.
4F\	.	.	.	4A/	.	.	.
4D\	.	.	.	4B\	.	.	.
4E\	.	.	.	4c\	.	.	.
4D\	.	.	.	4B\	.	.	.
4E\	.	.	.	4c\	.	.	.
4F\	.	.	.	4A/	.	.	.
=54	=54	=54	=54	=54	=54	=54	=54
4G\	.	0r	.	4B\	.	0r	.
4F\	.	.	.	4A/	.	.	.
4G\	.	.	.	4B\	.	.	.
4E\	.	.	.	4c\	.	.	.
4F\	.	.	.	4d\	.	.	.
4E\	.	.	.	4c\	.	.	.
4F\	.	.	.	4d\	.	.	.
4G\	.	.	.	4B\	.	.	.
=55	=55	=55	=55	=55	=55	=55	=55
2A\	-ri-	0r	.	4c\	.	0r	.
.	.	.	.	4B\	.	.	.
2F\	-a	.	.	4c\	.	.	.
.	.	.	.	4d\	.	.	.
1E	tu-	.	.	2e\	-ri-	.	.
.	.	.	.	2c\	-a	.	.
=56	=56	=56	=56	=56	=56	=56	=56
0Dl	-a.	0r	.	1B	tu-	0r	.
.	.	.	.	1Al	-a.	.	.
!!LO:LB:i:g=z
=57||	=57||	=57||	=57||	=57||	=57||	=57||	=57||
*>C	*>C	*>C	*>C	*>C	*>C	*>C	*>C
*clefF4	*	*clefGv2	*	*clefGv2	*	*clefG2	*
*k[]	*	*k[]	*	*k[]	*	*k[]	*
*M2/1	*	*M2/1	*	*M2/1	*	*M2/1	*
*met(C|)	*	*met(C|)	*	*met(C|)	*	*met(C|)	*
!!section: Osanna
!!!OMD: Osanna
0r	.	0r	.	4D/	O-	0r	.
.	.	.	.	4E/	.	.	.
.	.	.	.	4F/	.	.	.
.	.	.	.	4G/	.	.	.
.	.	.	.	2A/	.	.	.
.	.	.	.	[2B-i\	-san-	.	.
=58	=58	=58	=58	=58	=58	=58	=58
0r	.	0r	.	4B-\]	.	4d/	O-
.	.	.	.	4A/	.	4e/	.
.	.	.	.	2.A/	.	4f/	.
.	.	.	.	.	.	4g/	.
.	.	.	.	.	.	2a/	.
.	.	.	.	4D/	.	.	.
.	.	.	.	2d\	-na	[2b-i\	-san-
=59	=59	=59	=59	=59	=59	=59	=59
0r	.	0r	.	2c\	in	4b-\]	.
.	.	.	.	.	.	4a/	.
.	.	.	.	2A/	ex-	2.a/	.
.	.	.	.	1B-i	-cel-	.	.
.	.	.	.	.	.	4d/	.
.	.	.	.	.	.	2dd\	-na
=60	=60	=60	=60	=60	=60	=60	=60
0r	.	0r	.	1A	-sis,	2cc\	in
.	.	.	.	.	.	2a/	ex-
.	.	.	.	2r	.	1b-i	-cel-
.	.	.	.	2G/	o-	.	.
=61	=61	=61	=61	=61	=61	=61	=61
1r	.	1D	Phi-	2A/	-san-	1a	-sis,
.	.	.	.	2D/	.	.	.
1AA	O-	1C	-lip-	2E/	.	2r	.
.	.	.	.	2F/	.	[2cc\	o-
=62	=62	=62	=62	=62	=62	=62	=62
1GG	-san-	1D	-pus	1G	-na,	2cc\]	.
.	.	.	.	.	.	2b\	.
1AA	-na	1C	rex	2r	.	2.cc\	-san-
.	.	.	.	2E/	o-	.	.
.	.	.	.	.	.	4a/	.
=63	=63	=63	=63	=63	=63	=63	=63
2r	.	1D	Ca-	2F/	-san-	4a/	.
.	.	.	.	.	.	4f/	.
2GG/	in	.	.	2G/	.	2b-i\	.
1D	ex-	1F	-sti-	2A/	.	2a/	-na,
.	.	.	.	[2B-i\	.	2d/	o-
=64	=64	=64	=64	=64	=64	=64	=64
2C/	-cel-	1E	-li-	4B-\]	.	2e/	-san-
.	.	.	.	4A/	.	.	.
2AA/	.	.	.	2.A/	.	2c/	.
1BB-i	.	1D	-e,	.	.	2d/	-na
.	.	.	.	4D/	.	.	.
.	.	.	.	2d\	-na	[2f/	in
=65	=65	=65	=65	=65	=65	=65	=65
1AA	-sis,	0r	.	2.c\	in	4f/]	.
.	.	.	.	.	.	4e/	.
.	.	.	.	.	.	2a/	.
.	.	.	.	4A/	.	.	.
1r	.	.	.	4c\	ex-	2g/	ex-
.	.	.	.	4B\	.	.	.
.	.	.	.	[2e\	-cel-	2cc\	-cel-
=66	=66	=66	=66	=66	=66	=66	=66
0r	.	0r	.	4e\]	.	2b\	.
.	.	.	.	4d\	.	.	.
.	.	.	.	2f\	.	2a/	.
.	.	.	.	2e\	.	2cc\	.
.	.	.	.	[2g\	.	[2b\	.
=67	=67	=67	=67	=67	=67	=67	=67
0r	.	0r	.	4g\]	.	4b\]	.
.	.	.	.	4f\	.	4a/	.
.	.	.	.	4d\	.	2dd\	.
.	.	.	.	4f\	.	.	.
.	.	.	.	2e\	.	2cc\	.
.	.	.	.	[2d\	.	[2b\	.
=68	=68	=68	=68	=68	=68	=68	=68
0r	.	0r	.	4d\]	.	4b\]	.
.	.	.	.	4c\	.	4a/	.
.	.	.	.	4A/	.	1a	.
.	.	.	.	4c\	.	.	.
.	.	.	.	1B	-sis,	.	.
.	.	.	.	.	.	2g#i/	.
=69	=69	=69	=69	=69	=69	=69	=69
1r	.	1A	Phi-	2r	.	2a/	-sis,
.	.	.	.	2A/	o-	2cc\	o-
1E	o-	1G	-lip-	2B\	-san-	2b\	-san-
.	.	.	.	2c\	.	[2g/	.
=70	=70	=70	=70	=70	=70	=70	=70
1D	-san-	1A	-pus	1d	-na,	2g/]	.
.	.	.	.	.	.	2f/	.
1E	-na	1G	rex	2r	.	2.g/	.
.	.	.	.	2B\	o-	.	.
.	.	.	.	.	.	4e/	.
=71	=71	=71	=71	=71	=71	=71	=71
2r	.	1A	Ca-	2c\	-san-	4e/	.
.	.	.	.	.	.	4c/	.
2D\	in	.	.	2d\	.	2f/	.
1A	ex-	1c	-sti-	2e\	.	2e/	.
.	.	.	.	[2f\	.	2c/	.
=72	=72	=72	=72	=72	=72	=72	=72
2G\	-cel-	1B	-li-	4f\]	.	2d/	.
.	.	.	.	4e\	.	.	.
2E\	.	.	.	2.e\	.	2e/	-na,
1F	.	1A	-e,	.	.	2r	.
.	.	.	.	4c\	.	.	.
.	.	.	.	2d\	-na,	2a/	o-
=73	=73	=73	=73	=73	=73	=73	=73
1E	-sis,	0r	.	2r	.	2.g/	-san-
.	.	.	.	2e\	o-	.	.
.	.	.	.	.	.	4e/	.
1r	.	.	.	2.d\	-san-	4f/	.
.	.	.	.	.	.	4d/	.
.	.	.	.	.	.	4f/	.
.	.	.	.	4B\	.	4g/	.
=74	=74	=74	=74	=74	=74	=74	=74
0r	.	0r	.	4c\	.	2e/	-na,
.	.	.	.	4A/	.	.	.
.	.	.	.	4c\	.	2a/	o-
.	.	.	.	4d\	.	.	.
.	.	.	.	2B\	-na,	2.g/	-san-
.	.	.	.	2e\	o-	.	.
.	.	.	.	.	.	4e/	.
=75	=75	=75	=75	=75	=75	=75	=75
0r	.	0r	.	2.d\	-san-	4f/	.
.	.	.	.	.	.	4d/	.
.	.	.	.	.	.	4f/	.
.	.	.	.	4B\	.	4g/	.
.	.	.	.	4c\	.	2e/	.
.	.	.	.	4d\	.	.	.
.	.	.	.	[2e\	.	[2g/	.
=76	=76	=76	=76	=76	=76	=76	=76
0r	.	0r	.	4e\]	.	4g/]	.
.	.	.	.	4d\	.	4f/	.
.	.	.	.	2d\	.	2d/	.
.	.	.	.	1g	.	1e	.
=77	=77	=77	=77	=77	=77	=77	=77
1r	.	1d	Phi-	2f\	-na,	2d/	-na,
.	.	.	.	2d\	o-	2f/	o-
1A	o-	1c	-lip-	2e\	-san-	4e/	-san-
.	.	.	.	.	.	4c/	.
.	.	.	.	2f\	.	[2cc\	.
=78	=78	=78	=78	=78	=78	=78	=78
1G	-san-	1d	-pus	1g	-na,	2cc\]	.
.	.	.	.	.	.	2b\	.
1A	-na	1c	rex	2r	.	2.cc\	.
.	.	.	.	2e\	o-	.	.
.	.	.	.	.	.	4a/	.
=79	=79	=79	=79	=79	=79	=79	=79
2r	.	1d	Ca-	2f\	-san-	4a/	.
.	.	.	.	.	.	4f/	.
2G\	in	.	.	2g\	-na,	2b-i\	.
1d	ex-	1f	-sti-	2r	.	4a/	.
.	.	.	.	.	.	4f/	.
.	.	.	.	2d\	o-	[2b-i\	.
=80	=80	=80	=80	=80	=80	=80	=80
2c\	-cel-	1e	-li-	2e\	-san-	4b-\]	.
.	.	.	.	.	.	4a/	.
2A\	.	.	.	2c\	-na,	1a	.
1B-i	.	1d	-e.	2r	.	.	.
.	.	.	.	2d\	o-	2g/	.
=81	=81	=81	=81	=81	=81	=81	=81
0A	-sis,	2D/	Phi-	2f\	-san-	0a	-na
.	.	2C/	-lip-	2e\	-na	.	.
.	.	2D/	-pus	4f\	in	.	.
.	.	.	.	4d\	.	.	.
.	.	2C/	rex	2e\	ex-	.	.
=82	=82	=82	=82	=82	=82	=82	=82
2r	.	2D/	Ca-	2.A/	-cel-	2.f/	in
2D\	in	2F/	-sti-	.	.	.	.
.	.	.	.	4B\	.	4d/	.
2C/	ex-	2E/	-li-	2c\	.	2e/	ex-
2D\	-cel-	2D/	-e,	2F/	.	2f/	-cel-
=83	=83	=83	=83	=83	=83	=83	=83
2AA/	-sis,	2A/	Phi-	4c\	.	2e/	-sis,
.	.	.	.	4A/	.	.	.
2E\	in	2G/	-lip-	4B\	.	2g/	in
.	.	.	.	4c\	.	.	.
2D\	ex-	2A/	-pus	2d\	.	2f/	ex-
2E\	-cel-	2G/	rex	2B\	.	2g/	-cel-
=84	=84	=84	=84	=84	=84	=84	=84
2AA/	-sis,	2A/	Ca-	4c\	.	1e	-sis,
.	.	.	.	4d\	.	.	.
2A\	in	2c\	-sti-	4e\	.	.	.
.	.	.	.	4c\	.	.	.
2G\	ex-	2B\	-li-	4d\	.	2r	.
.	.	.	.	4e\	.	.	.
2A\	-cel-	2A/	-e,	[2f\	.	[2a/	o-
=85	=85	=85	=85	=85	=85	=85	=85
2D\	-sis,	2d\	Phi-	4f\]	.	4a/]	.
.	.	.	.	4d\	.	4b\	.
2A\	in	2c\	-lip-	4e\	.	4cc\	.
.	.	.	.	4f\	.	4a/	.
2G\	ex-	2d\	-pus	2g\	-sis,	2b\	.
2A\	-cel-	2c\	rex	2e\	o-	2cc\	.
=86	=86	=86	=86	=86	=86	=86	=86
2F\	.	2d\	Ca-	2.f\	-san-	1a	-san-
2D\	-sis,	2f\	-sti-	.	.	.	.
.	.	.	.	4e\	.	.	.
2r	.	2e\	-li-	2c\	.	2g/	-na
[2G\	in	[2d\l	-e.	2d\	-na	[2b-i\	in
=87	=87	=87	=87	=87	=87	=87	=87
2G\]	.	0d_	.	2B-\	in	2b-\]	.
2G\	ex-	.	.	2G/	ex-	2b-i\	ex-
1G	-cel-	.	.	1g	-cel-	1b-i	-cel-
=88	=88	=88	=88	=88	=88	=88	=88
0Dl	-sis.	0d]	.	0fl	-sis.	0al	-sis.
!!LO:TX:rj:i:t=fine
!!LO:LB:i:g=z
=89||	=89||	=89||	=89||	=89||	=89||	=89||	=89||
*>D	*>D	*>D	*>D	*>D	*>D	*>D	*>D
*clefF4	*	*clefGv2	*	*clefGv2	*	*clefG2	*
*k[]	*	*k[]	*	*k[]	*	*k[]	*
*M2/1	*	*M2/1	*	*M2/1	*	*M2/1	*
*met(C|)	*	*met(C|)	*	*met(C|)	*	*met(C|)	*
!!section: Benedictus
!!!OMD: Benedictus
0r	.	0D	Phi-	2.d\	Be-	0r	.
.	.	.	.	4e\	.	.	.
.	.	.	.	2f\	.	.	.
.	.	.	.	2d\	-ne-	.	.
=90	=90	=90	=90	=90	=90	=90	=90
0r	.	0C	-lip-	2f\	-dic-	0r	.
.	.	.	.	1e	.	.	.
.	.	.	.	4d\	.	.	.
.	.	.	.	4c\	.	.	.
=91	=91	=91	=91	=91	=91	=91	=91
0r	.	0D	-pus	2B\	.	0r	.
.	.	.	.	2A/	.	.	.
.	.	.	.	2B\	.	.	.
.	.	.	.	[2A/	.	.	.
=92	=92	=92	=92	=92	=92	=92	=92
0r	.	0C	rex	2A/]	.	0r	.
.	.	.	.	4G/	.	.	.
.	.	.	.	4F/	.	.	.
.	.	.	.	2E/	-tus,	.	.
.	.	.	.	[2A/	be-	.	.
=93	=93	=93	=93	=93	=93	=93	=93
0r	.	0D	Ca-	4A/]	.	0r	.
.	.	.	.	4F/	.	.	.
.	.	.	.	2B-\	.	.	.
.	.	.	.	2A/	.	.	.
.	.	.	.	2d\	-ne	.	.
=94	=94	=94	=94	=94	=94	=94	=94
0r	.	0F	-sti-	4D/	dic-	0r	.
.	.	.	.	4E/	.	.	.
.	.	.	.	4F/	.	.	.
.	.	.	.	4G/	.	.	.
.	.	.	.	4A/	.	.	.
.	.	.	.	4B\	.	.	.
.	.	.	.	4c\	.	.	.
.	.	.	.	4d\	.	.	.
=95	=95	=95	=95	=95	=95	=95	=95
0r	.	0E	-li-	4e\	.	0r	.
.	.	.	.	4c\	.	.	.
.	.	.	.	2.d\	.	.	.
.	.	.	.	4c#i\	.	.	.
.	.	.	.	4c#i\	.	.	.
.	.	.	.	4B\	.	.	.
=96	=96	=96	=96	=96	=96	=96	=96
0r	.	0Dl	-e.	0dl	-tus.	0r	.
!!LO:LB:i:g=z
=97||	=97||	=97||	=97||	=97||	=97||	=97||	=97||
*>E	*>E	*>E	*>E	*>E	*>E	*>E	*>E
*clefF4	*	*clefGv2	*	*clefGv2	*	*clefG2	*
*k[]	*	*k[]	*	*k[]	*	*k[]	*
*M2/1	*	*M2/1	*	*M2/1	*	*M2/1	*
*met(C|)	*	*met(C|)	*	*met(C|)	*	*met(C|)	*
!!section: Qui venit
!!!OMD: Qui venit
1F	Qui	0A	Phi-	0r	.	0r	.
2D\	.	.	.	.	.	.	.
[2F\	ve-	.	.	.	.	.	.
=98	=98	=98	=98	=98	=98	=98	=98
2F\]	.	0G	-lip-	0r	.	0r	.
4E\	.	.	.	.	.	.	.
4D\	.	.	.	.	.	.	.
1E	.	.	.	.	.	.	.
=99	=99	=99	=99	=99	=99	=99	=99
2AA/	-nit,	0A	-pus	0r	.	0r	.
2c\	qui-	.	.	.	.	.	.
2A\	.	.	.	.	.	.	.
[2c\	-ve-	.	.	.	.	.	.
=100	=100	=100	=100	=100	=100	=100	=100
2c\]	.	0G	rex	0r	.	0r	.
4B\	.	.	.	.	.	.	.
4A\	.	.	.	.	.	.	.
2B\	.	.	.	.	.	.	.
2E\	-nit,	.	.	.	.	.	.
=101	=101	=101	=101	=101	=101	=101	=101
2r	.	0A	Ca-	0r	.	0r	.
2F\	qui	.	.	.	.	.	.
4D\	ve-	.	.	.	.	.	.
4E\	.	.	.	.	.	.	.
4F\	.	.	.	.	.	.	.
4D\	.	.	.	.	.	.	.
=102	=102	=102	=102	=102	=102	=102	=102
2E\	.	0c	-sti-	0r	.	0r	.
4AA/	.	.	.	.	.	.	.
4BB/	.	.	.	.	.	.	.
4C/	.	.	.	.	.	.	.
4D\	.	.	.	.	.	.	.
4E\	.	.	.	.	.	.	.
4F\	.	.	.	.	.	.	.
=103	=103	=103	=103	=103	=103	=103	=103
4G\	.	0B	-li-	0r	.	0r	.
4E\	.	.	.	.	.	.	.
2.A\	.	.	.	.	.	.	.
4G#i\	.	.	.	.	.	.	.
4G#i\	.	.	.	.	.	.	.
4F#i\	.	.	.	.	.	.	.
=104	=104	=104	=104	=104	=104	=104	=104
0Al	-nit.	0Al	-e.	0r	.	0r	.
!!LO:LB:i:g=z
=105||	=105||	=105||	=105||	=105||	=105||	=105||	=105||
*>F	*>F	*>F	*>F	*>F	*>F	*>F	*>F
*clefF4	*	*clefGv2	*	*clefGv2	*	*clefG2	*
*k[]	*	*k[]	*	*k[]	*	*k[]	*
*M2/1	*	*M2/1	*	*M2/1	*	*M2/1	*
*met(C|)	*	*met(C|)	*	*met(C|)	*	*met(C|)	*
!!section: In nomine
!!!OMD: In nomine
0r	.	0d	Phi-	0r	.	1a	In
.	.	.	.	.	.	2b-i\	no-
.	.	.	.	.	.	[2a/	.
=106	=106	=106	=106	=106	=106	=106	=106
0r	.	0c	-lip-	0r	.	2a/]	.
.	.	.	.	.	.	4g/	-mi-
.	.	.	.	.	.	4f/	.
.	.	.	.	.	.	2e/	-ne,
.	.	.	.	.	.	2A/	.
=107	=107	=107	=107	=107	=107	=107	=107
0r	.	0d	-pus	0r	.	2r	.
.	.	.	.	.	.	2a/	in
.	.	.	.	.	.	2b-i\	no-
.	.	.	.	.	.	[2a/	.
=108	=108	=108	=108	=108	=108	=108	=108
0r	.	0c	rex	0r	.	2a/]	.
.	.	.	.	.	.	4g/	-mi-
.	.	.	.	.	.	4f/	.
.	.	.	.	.	.	2e/	-ne
.	.	.	.	.	.	2A/	.
=109	=109	=109	=109	=109	=109	=109	=109
0r	.	0d	Ca-	0r	.	2r	.
.	.	.	.	.	.	2a/	do-
.	.	.	.	.	.	2b-i\	.
.	.	.	.	.	.	[2a/	.
=110	=110	=110	=110	=110	=110	=110	=110
0r	.	0f	-sti-	0r	.	4a/]	.
.	.	.	.	.	.	4g/	.
.	.	.	.	.	.	4f/	.
.	.	.	.	.	.	4e/	.
.	.	.	.	.	.	2d/	.
.	.	.	.	.	.	[2dd\	.
=111	=111	=111	=111	=111	=111	=111	=111
0r	.	0e	-li-	0r	.	2dd\]	.
.	.	.	.	.	.	4cc#i\	.
.	.	.	.	.	.	4b\	.
.	.	.	.	.	.	4cc#i\	-mi-
.	.	.	.	.	.	4dd\	.
.	.	.	.	.	.	4ee\	.
.	.	.	.	.	.	4cc#i\	.
=112	=112	=112	=112	=112	=112	=112	=112
0r	.	0dl	-e.	0r	.	0ddl	-ni.
!!LO:TX:i:Y=40:rj:t=Osanna ut supra
=||	=||	=||	=||	=||	=||	=||	=||
*-	*-	*-	*-	*-	*-	*-	*-
!!!RDF**kern: l=long note in original notation
!!!RDF**kern: i=editorial accidental
!!!RDF**kern: V=start of tuplet marker
!!!RDF**kern: Z=end of tuplet marker
!!!ENC:	Jesse Rodin; Victoria Chang 2011/09/11
!!!END:	2011/09/11/
!!!EED:	Jesse Rodin
!!!EEV:	2015/06/16/
!!attribution-level@Jos: 1 (secure)
!!!ONB:	Translated from MusicXML and edited on 2015/06/16/ by Craig Sapp
!!muse2ps: T^@{OPR}^u^@{ONM}{. }@{OTL}^C^@{COA}?\n@{SCT}^i2I150v90,90,90,130c130z18
